X:1
T:Kagome Kagome
C:Trad Japanese children's song (pre-1900)
S:Public domain or original as noted in notes.md
M:2/4
L:1/8
Q:1/4=68
K:Ddor
H:D dorian starter arrangement for Shakuhachi (D). Refs #1
D E F G | A G F E | D E F A | G2 F2 |
A c A G | F G A2 | D E F G | A2 D2 |]
